X: 161
T:Flowing Bowl
M:C
L:1/8
R:reel
D:Solas: Sola
K:BMinor
ef | gfed cA (3AAA  | cAdB cAAf  | gfed cA (3AAA  | fage d2 :|
A2 | df ~f2 af ~f2 | df ~f2 gece | df ~f2 af ~f2 | g3 e cAce | 
 df ~f2 af ~f2 | df ~f2 gece | ~f4 ~g4 | fage d2||
